packages/icons/src/components/Logo/assets/light/proxmox.svg

<svg width="20" height="20" viewBox="0 0 20 20" fill="none" xmlns="http://www.w3.org/2000/svg">
<g>
<path d="M10.0001 9.68766L3.31682 2.33756C3.57607 2.07832 3.87805 1.87463 4.22274 1.72648C4.56747 1.57835 4.93781 1.50286 5.33379 1.5C5.75436 1.50322 6.13967 1.58655 6.4897 1.74999C6.83976 1.91345 7.14388 2.13779 7.40204 2.42302L10.0002 5.26046L12.5812 2.42302C12.8487 2.13779 13.1599 1.91345 13.5149 1.74998C13.87 1.58654 14.2538 1.50322 14.6666 1.5C15.0626 1.50286 15.4329 1.57835 15.7776 1.72648C16.1223 1.87463 16.4243 2.07832 16.6835 2.33756L10 9.68747" fill="black"/>
<path d="M10 10.8123L16.6833 18.1624C16.4241 18.4217 16.1221 18.6254 15.7774 18.7735C15.4327 18.9216 15.0623 18.9971 14.6664 19C14.2458 18.9968 13.8605 18.9135 13.5105 18.75C13.1604 18.5866 12.8563 18.3622 12.5981 18.077L9.99998 15.2395L7.41894 18.077C7.1515 18.3622 6.84026 18.5866 6.48523 18.75C6.13019 18.9135 5.74631 18.9968 5.33359 19C4.9376 18.9971 4.56725 18.9216 4.22255 18.7735C3.87784 18.6254 3.57586 18.4217 3.31662 18.1624L10.0001 10.8125" fill="black"/>
<path d="M9.43791 10.2501L4.40353 4.72913C4.11071 4.41684 3.76993 4.1712 3.38121 3.99222C2.99247 3.81327 2.57216 3.72203 2.12027 3.71851C1.68669 3.72164 1.2812 3.8043 0.903774 3.96649C0.526349 4.1287 0.195713 4.35172 -0.0881348 4.63556L5.02114 10.2501L-0.0881348 15.8647C0.195713 16.1575 0.526349 16.386 0.903774 16.5502C1.2812 16.7143 1.68669 16.7978 2.12027 16.8005C2.57333 16.797 2.99598 16.7057 3.38823 16.5268C3.78047 16.3478 4.1189 16.1022 4.40353 15.7899L9.43791 10.2501Z" fill="#E57000"/>
<path d="M10.5621 10.2501L15.5965 4.72913C15.8893 4.41684 16.2301 4.1712 16.6188 3.99222C17.0075 3.81327 17.4279 3.72203 17.8797 3.71851C18.3133 3.72164 18.7188 3.8043 19.0962 3.96649C19.4737 4.1287 19.8043 4.35172 20.0881 4.63556L14.9789 10.2501L20.0881 15.8647C19.8043 16.1575 19.4737 16.386 19.0962 16.5502C18.7188 16.7143 18.3133 16.7978 17.8797 16.8005C17.4267 16.797 17.004 16.7057 16.6118 16.5268C16.2195 16.3478 15.8811 16.1022 15.5965 15.7899L10.5621 10.2501Z" fill="#E57000"/>
</g>
<defs>
<clipPath id="clip0_341_637">
<rect width="20" height="20" fill="white"/>
</clipPath>
</defs>
</svg>

<svg xmlns="http://www.w3.org/2000/svg" width="20" height="20" fill="none" viewBox="0 0 20 20">
    <path fill="#000" d="m10 9.688-6.683-7.35A2.87 2.87 0 0 1 5.334 1.5a2.75 2.75 0 0 1 2.068.923L10 5.26l2.581-2.837q.402-.428.934-.673a2.8 2.8 0 0 1 1.152-.25q.594.004 1.11.226.517.223.906.612zm0 1.124 6.683 7.35a2.87 2.87 0 0 1-2.017.838 2.75 2.75 0 0 1-2.068-.923L10 15.239l-2.581 2.838q-.401.428-.934.673a2.8 2.8 0 0 1-1.151.25 2.87 2.87 0 0 1-2.017-.838z"/>
    <path fill="#e57000" d="M9.438 10.25 4.404 4.73a3.3 3.3 0 0 0-1.023-.738 3 3 0 0 0-1.26-.273q-.651.004-1.217.247a3.1 3.1 0 0 0-.992.67l5.11 5.614-5.11 5.615a3.08 3.08 0 0 0 2.208.935 3.1 3.1 0 0 0 2.283-1.01zm1.124 0 5.035-5.52a3.3 3.3 0 0 1 1.022-.738q.584-.268 1.26-.273.651.004 1.217.247.567.244.992.67l-5.11 5.614 5.11 5.615a3.08 3.08 0 0 1-2.208.935 3.1 3.1 0 0 1-2.283-1.01z"/>
</svg>
